X:1
T:The Well-Tempered Clavier Book II - XV
T:BWV 884    (A = 415 Hz)
T:J. S. Bach
%%score { ( 1 2 ) | 3 }
L:1/8
M:3/4
K:G
V:1 treble 
V:2 treble 
V:3 bass 
V:1
"^Praeludium" G/d/F/d/ G/d/A/d/ B/d/c/d/ | B/d/A/d/ G/d/c/d/ B/d/A/d/ | %2
 B/d/A/d/ G/d/B/d/ A/d/G/d/- | d6- | d6- | d6- | dB cd ef | G/g/f/g/ G/g/A/g/ B/g/^c/g/ | %8
 f/d/^c/d/ b/B/a/B/ g/B/f/B/ | e/^c/B/c/ a/A/g/A/ f/A/e/A/ | d/B/A/B/ g/G/f/G/ e/G/d/G/ | %11
 ^c/G/d/G/ e/G/d/G/ c/G/B/G/ | A/G/F/E/ Fd Ed/4^c/4B/4c/4 | D/E/=F/D/ ^G/D/A/D/ B/D/^C/B,/ | %14
 ^C/E/ A2 G/F/ G/F/E/F/ | D^C/B,/[I:staff +1] A,/G,/F,/E,/ D,/4^C,/4D,3/2 | %16
[I:staff -1] G/d/F/d/ G/d/A/d/ B/d/c/d/ | B/d/A/d/ G/d/c/d/ B/d/A/d/ | %18
 B/d/A/d/ G/d/B/d/ A/d/G/d/- | d6- | d6- | d6- | dB cd ef | G/g/f/g/ G/g/A/g/ B/g/^c/g/ | %24
 f/d/^c/d/ b/B/a/B/ g/B/f/B/ | e/^c/B/c/ a/A/g/A/ f/A/e/A/ | d/B/A/B/ g/G/f/G/ e/G/d/G/ | %27
 ^c/G/d/G/ e/G/d/G/ c/G/B/G/ | A/G/F/E/ Fd Ed/4^c/4B/4c/4 | D/E/=F/D/ ^G/D/A/D/ B/D/^C/B,/ | %30
 ^C/E/ A2 G/F/ G/F/E/F/ | D^C/B,/[I:staff +1] A,/G,/F,/E,/ D,/4^C,/4D,3/2 | %32
[I:staff -1] F/D/E/D/ F/D/G/D/ A/D/G/D/ | F/D/E/D/ F/D/G/D/ A/D/F/D/ | G/D/F/D/ G/D/B/D/ A/D/c/D/ | %35
 BB/4A/4B/4A/4 GA Bc | dc de =fd | eg ec dB | c/e/^d/e/ a/c/g/c/ f/c/e/c/ | %39
 ^d/B/^A/B/ g/B/f/B/ e/B/=d/B/ | c/A/G/A/ F/A/E/A/ ^D/A/E/A/ | F^d ef/4e/4d/4f/4 gd | %42
 e/B/c/A/ Ge Fe/4^d/4c/4d/4 | e/B/G/B/ E2- E/G/B/d/ | ^cA ce ag | fa fd Ac | BG Bd g=f | %47
 e/4d/4e3/2- e/d/c/B/ A/G/F/E/ | Fd/4c/4d/- d/c/B/A/ G/F/E/D/ | Ec/4B/4c/- c/B/A/G/ F/E/D/C/ | %50
 D/F/E/D/ E/F/G/A/ B/A/B/G/ | A/d/c/B/ A/G/F/E/ D2- | D/G/C/G/ D/G/B,/G/ C/G/D/G/ | %53
 E/G/D/G/ E/A/^C/A/ D/A/E/A/ | F/A/E/A/ F/B/^D/B/ E/B/F/B/ | G/B/F/B/ EG c/4B/4c3/2- | %56
 c/a/g/a/ f/a/e/a/ d/a/c/a/ | Bd g=f f/4e/4f/4e/4d | e/c/B/c/ c'/c/b/c/ a/c/g/c/ | %59
 f/c/g/c/ a/c/g/c/ f/c/e/c/ | d/c/B/A/ Bg Ag/4f/4e/4f/4 | G/A/_B/G/ ^c/G/d/G/ e/G/F/E/ | %62
 F/A/ d2 c/B/ c/B/A/B/ | GF/E/ D/[I:staff +1]C/B,/A,/ G,/4F,/4!fermata!G,3/2 | %64
[I:staff -1] F/D/E/D/ F/D/G/D/ A/D/G/D/ | F/D/E/D/ F/D/G/D/ A/D/F/D/ | G/D/F/D/ G/D/B/D/ A/D/c/D/ | %67
 BB/4A/4B/4A/4 GA Bc | dc de =fd | eg ec dB | c/e/^d/e/ a/c/g/c/ f/c/e/c/ | %71
 ^d/B/^A/B/ g/B/f/B/ e/B/=d/B/ | c/A/G/A/ F/A/E/A/ ^D/A/E/A/ | F^d ef/4e/4d/4f/4 gd | %74
 e/B/c/A/ Ge Fe/4^d/4c/4d/4 | e/B/G/B/ E2- E/G/B/d/ | ^cA ce ag | fa fd Ac | BG Bd g=f | %79
 e/4d/4e3/2- e/d/c/B/ A/G/F/E/ | Fd/4c/4d/- d/c/B/A/ G/F/E/D/ | Ec/4B/4c/- c/B/A/G/ F/E/D/C/ | %82
 D/F/E/D/ E/F/G/A/ B/A/B/G/ | A/d/c/B/ A/G/F/E/ D2- | D/G/C/G/ D/G/B,/G/ C/G/D/G/ | %85
 E/G/D/G/ E/A/^C/A/ D/A/E/A/ | F/A/E/A/ F/B/^D/B/ E/B/F/B/ | G/B/F/B/ EG c/4B/4c3/2- | %88
 c/a/g/a/ f/a/e/a/ d/a/c/a/ | Bd g=f f/4e/4f/4e/4d | e/c/B/c/ c'/c/b/c/ a/c/g/c/ | %91
 f/c/g/c/ a/c/g/c/ f/c/e/c/ | d/c/B/A/ Bg Ag/4f/4e/4f/4 | G/A/_B/G/ ^c/G/d/G/ e/G/F/E/ | %94
 F/A/ d2 c/B/ c/B/A/B/ | GF/E/ D/[I:staff +1]C/B,/A,/ G,/4F,/4!fermata!G,3/2 |[I:staff -1] z6 | %97
[M:3/8]"^Fuga" z/ d/B/d/g/d/ | B/d/G/d/B/d/ | e/c/A/c/F/A/ | d/B/G/B/E/G/ | c/A/F/A/D/F/ | %102
 B/A/G/A/B/c/ | d/A/B/^c/d/e/ | f/e/d/e/f/g/ | a z a | dg/4f/4g3/2- | gfd | Be/4d/4e3/2- | %109
 e/g/f/e/d/e/ | f/a/g/f/e/f/ | g z z | z b2- | b/e/f<a- | a/d/e<g- | g/c/d<f- | f e2- | e d2- | %118
 d^c/B/c | d z z | z ac- | c/d/B/d/g/d/ | B/d/G/d/B/d/- | d z z | z bd- | d/e/c/e/a/e/ | %126
 c/e/A/e/c/e/ | f z z | z a2- | ab/a/g/f/ | e/f/ g2- | g/c/d<f- | f/B/c<e- | e/A/B<^d- | de/^d/e- | %135
 ed/^c/d/e/ | f/e/d/f/b/f/ | d/f/B/f/d/f/ | g/e/^c/e/A/c/ | f/d/B/d/G/B/ | e/^c/^A/c/F/A/ | %141
 d/f/B/d/f/d/ | B/d/F/B/d- | d3- | d3- | dcc | d/4c/4d/4c/4d/4c/4d/4c/4d/4c/4d/4c/4 | %147
 d/4c/4d/4c/4cc | c3- | cBB | B2- B/B/- | B/B/A/F/G/E/ | F/A/D/F/A/F/ | D/F/A,/D/F/C/ | %154
 B,/D/B,/D/G/D/ | B,/D/G,/B,/D/B,/ |[I:staff +1] G,/_B,/E,/G,/B,/D,/ | %157
[I:staff -1] z/ _B,/A,/G,/E/G,/ |[I:staff +1] G,/4F,/4E,/D,[I:staff -1] z | z z2 | %160
 B,/4^C/4D/4E/4F/4D/4E/4F/4G/4A/4B/4c/4 | d3- | d3- | d c2- | c B2- | BA/c/f/a/- | a/gf/g/f/4e/4 | %167
 d/4c/4B/4A/4G/4B/4A/4G/4F/4E/4D/4C/4 |{!fermata!C} !fermata!B,3 |] %169
V:2
[I:staff +1] B,A, B,C DE | DC B,E DC | DC B,D CB, |[I:staff -1] FE FG AB | AG FB AG | AG FA GF | %6
 E2 A4 | x6 | x6 | x6 | x6 | x6 | x6 | x6 | x6 | x6 |[I:staff +1] B,A, B,C DE | DC B,E DC | %18
 DC B,D CB, |[I:staff -1] FE FG AB | AG FB AG | AG FA GF | E2 A4 | x6 | x6 | x6 | x6 | x6 | x6 | %29
 x6 | x6 | x6 |[I:staff +1] A,G, A,B, CB, | A,G, A,B, CA, | B,A, B,G, A,F, | x6 | x6 | x6 | x6 | %39
 x6 | x6 | x6 | x6 | x6 | x6 | x6 | x6 | x6 | x6 | x6 | x6 | x6 | x6 | x6 | x6 | x6 | x6 | x6 | %58
 x6 | x6 | x6 | x6 | x6 | x6 | A,G, A,B, CB, | A,G, A,B, CA, | B,A, B,G, A,F, | x6 | x6 | x6 | x6 | %71
 x6 | x6 | x6 | x6 | x6 | x6 | x6 | x6 | x6 | x6 | x6 | x6 | x6 | x6 | x6 | x6 | x6 | x6 | x6 | %90
 x6 | x6 | x6 | x6 | x6 | x6 | x6 |[M:3/8] x3 | x3 | x3 | x3 | x3 | x3 | x3 | %104
[I:staff -1] z/ G/F/A/c/A/ | F/A/D/A/F/A/ | B/G/E/G/^C/E/ | A/F/D/F/B,/D/ | G/E/^C/E/A,/C/ | %109
 F/E/D/E/F/G/ | A/D/E/F/G/A/ | B/A/G/A/B/c/ | d2 d | c2 c | B2 B | A2 A | G2 G | F2 F | E2 G | %119
 F z z | z cA- | AG z | z C=F- | FE z | z dB- | BA z | z[I:staff +1] C[I:staff -1]A- | A z z | %128
 z ^df | Be>^d | e2 B | A2 A | G2 G | F2 A- | AG>G | F z z | x3 | z z[I:staff +1] F | E2 E | %139
 ^D2 D | ^C2 C | B,2[I:staff -1] z | z z z/ A/ | ^G/B/E/G/B/G/ | E/^G/B,/E/G- | GAA | A3- | AFF | %148
 G/4F/4G/4F/4G/4F/4G/4F/4G/4F/4G/4F/4 | G/4F/4G/4F/4GG | G=F/E/D | C3- | C[I:staff +1]F,F, | %153
 G,/4F,/4G,/4F,/4G,/4F,/4G,/4F,/4G,/4F,/4E,/4F,/4 | G,G,G, |[I:staff -1] G, z z | x3 | %157
[I:staff +1] D,/4^C,/4D,/4C,/4D,/4C,/4D,/4C,/4D,/4C,/4B,,/4C,/4 | x3 | x3 | x3 | %161
[I:staff -1] z/ D/[I:staff +1]B,/[I:staff -1]D/G/D/ |[I:staff +1] D/F/B,/F/D/F/ | %163
[I:staff -1] E/[I:staff +1]C/A,/C/F,/A,/ |[I:staff -1] D/[I:staff +1]B,/G,/B,/E,/G,/ | %165
[I:staff -1] C/[I:staff +1]A,/F,/A,/D,/F,/ | B,CD |[I:staff -1] z[I:staff +1] B,A, | %168
 !fermata!G,3 |] %169
V:3
 G,6- | G,6- | G,6 | D,/A,/C,/A,/ D,/A,/E,/A,/ F,/A,/G,/A,/ | %4
 F,/A,/E,/A,/ D,/A,/G,/A,/ F,/A,/E,/A,/ | F,/A,/E,/A,/ D,/A,/F,/A,/ E,/A,/D,/A,/ | %6
 A,,/A,/^G,/A,/ A,,/A,/B,,/A,/ C,/A,/D,/A,/ | E,/E/D/E/ E,/E/F,/E/ G,/E/A,/E/ | %8
 D/B,/A,/B,/ G,F ED | ^C/A,/G,/A,/ F,E DC | B,/G,/F,/G,/ E,D ^CB, | A,B, ^CE A,C | %12
 F,A, D,/E,/F,/G,/ A,A,, | B,,D, =F,A,, ^G,,E, | A,,/^C,/E,/G,/ F,D, A,/4G,/4A,/A,, | %15
 D,D,, F,,A,, D,/4^C,/4D,3/2 | G,6- | G,6- | G,6 | D,/A,/C,/A,/ D,/A,/E,/A,/ F,/A,/G,/A,/ | %20
 F,/A,/E,/A,/ D,/A,/G,/A,/ F,/A,/E,/A,/ | F,/A,/E,/A,/ D,/A,/F,/A,/ E,/A,/D,/A,/ | %22
 A,,/A,/^G,/A,/ A,,/A,/B,,/A,/ C,/A,/D,/A,/ | E,/E/D/E/ E,/E/F,/E/ G,/E/A,/E/ | %24
 D/B,/A,/B,/ G,F ED | ^C/A,/G,/A,/ F,E DC | B,/G,/F,/G,/ E,D ^CB, | A,B, ^CE A,C | %28
 F,A, D,/E,/F,/G,/ A,A,, | B,,D, =F,A,, ^G,,E, | A,,/^C,/E,/G,/ F,D, A,/4G,/4A,/A,, | %31
 D,D,, F,,A,, D,/4^C,/4D,3/2 | D,6- | D,6- | D,6 | G,,/G,/F,/G,/ B,/G,/C/G,/ D/G,/C/G,/ | %36
 B,/G,/A,/G,/ B,/G,/C/G,/ D/G,/B,/G,/ | C/G,/B,/G,/ C/G,/E/G,/ D/G,/=F/G,/ | E/C/B,/C/ F,E ^DF | %39
 B,/^D/^C/D/ E,F, G,E, | A,/C/B,/C/ A,/C/G,/C/ F,/C/E,/C/ | %41
 ^D,/B,/B,,/B,/ ^C,/B,/D,/B,/ E,/B,/F,/B,/ | G,/B,/A,/C/ B,/A,/G,/A,/ B,B,, | %43
 E,/4D,/4E,3/2- E,/B,,/G,,/B,,/ E,, z | z/ A,,/^C,/A,,/ E,/A,,/G,/A,,/ F,/A,,/E,/A,,/ | %45
 D,/A,,/F,,/A,,/ D,,/F,,/A,,/D,/ F,/A,/F,/D,/ | G,/G,,/B,,/G,,/ D,/G,,/=F,/G,,/ E,/G,,/D,/G,,/ | %47
 C,/G,,/E,,/G,,/ C,, z z2 | z/ C,/B,,/A,,/ B,,D, E,G,- | G,/B,,/A,,/G,,/ A,,C, D,F,- | %50
 F,/A,,/G,,/F,,/ G,,B,, D,G, | F,D, F,A,[I:staff -1] D/[I:staff +1]D,/C,/D,/ | %52
 B,,/D,/A,,/D,/ B,,/D,/G,,/D,/ A,,/D,/B,,/D,/ | C,/E,/B,,/E,/ ^C,/E,/A,,/E,/ B,,/E,/C,/E,/ | %54
 D,/F,/^C,/F,/ ^D,/F,/B,,/F,/ C,/F,/D,/F,/ | E,/G,/D,/G,/ C,/G,/B,,/G,/ A,,/C,/E,/G,/ | %56
 F,A, D,E, F,D, | G,/[I:staff -1]G/=F/G/ E/G/D/G/ C/G/B,/G/ | C/E/D/E/[I:staff +1] A,B, CA, | %59
 DA, F,A, D,F, | B,,D, G,,/A,,/B,,/C,/ D,D,, | E,,G, _B,D, ^C,A,, | D,/F,/A,/C/ B,G, DD, | %63
 G,G,, B,,D, G,/4F,/4!fermata!G,3/2 | D,6- | D,6- | D,6 | G,,/G,/F,/G,/ B,/G,/C/G,/ D/G,/C/G,/ | %68
 B,/G,/A,/G,/ B,/G,/C/G,/ D/G,/B,/G,/ | C/G,/B,/G,/ C/G,/E/G,/ D/G,/=F/G,/ | E/C/B,/C/ F,E ^DF | %71
 B,/^D/^C/D/ E,F, G,E, | A,/C/B,/C/ A,/C/G,/C/ F,/C/E,/C/ | %73
 ^D,/B,/B,,/B,/ ^C,/B,/D,/B,/ E,/B,/F,/B,/ | G,/B,/A,/C/ B,/A,/G,/A,/ B,B,, | %75
 E,/4D,/4E,3/2- E,/B,,/G,,/B,,/ E,, z | z/ A,,/^C,/A,,/ E,/A,,/G,/A,,/ F,/A,,/E,/A,,/ | %77
 D,/A,,/F,,/A,,/ D,,/F,,/A,,/D,/ F,/A,/F,/D,/ | G,/G,,/B,,/G,,/ D,/G,,/=F,/G,,/ E,/G,,/D,/G,,/ | %79
 C,/G,,/E,,/G,,/ C,, z z2 | z/ C,/B,,/A,,/ B,,D, E,G,- | G,/B,,/A,,/G,,/ A,,C, D,F,- | %82
 F,/A,,/G,,/F,,/ G,,B,, D,G, | F,D, F,A,[I:staff -1] D/[I:staff +1]D,/C,/D,/ | %84
 B,,/D,/A,,/D,/ B,,/D,/G,,/D,/ A,,/D,/B,,/D,/ | C,/E,/B,,/E,/ ^C,/E,/A,,/E,/ B,,/E,/C,/E,/ | %86
 D,/F,/^C,/F,/ ^D,/F,/B,,/F,/ C,/F,/D,/F,/ | E,/G,/D,/G,/ C,/G,/B,,/G,/ A,,/C,/E,/G,/ | %88
 F,A, D,E, F,D, | G,/[I:staff -1]G/=F/G/ E/G/D/G/ C/G/B,/G/ | C/E/D/E/[I:staff +1] A,B, CA, | %91
 DA, F,A, D,F, | B,,D, G,,/A,,/B,,/C,/ D,D,, | E,,G, _B,D, ^C,A,, | D,/F,/A,/C/ B,G, DD, | %95
 G,G,, B,,D, G,/4F,/4!fermata!G,3/2 | z6 |[M:3/8] z3 | z3 | z3 | z3 | z3 | z3 | z3 | z3 | z3 | z3 | %107
 z3 | z3 | z3 | z3 | z/ D/B,/D/G/D/ | B,/D/G,/D/B,/D/ | E/C/A,/C/F,/A,/ | D/B,/G,/B,/E,/G,/ | %115
 C/A,/F,/A,/D,/F,/ | B,/A,/G,/A,/B,/^C/ | D/^C/B,/A,/G,/F,/ | G,/E,/A,/G,/F,/E,/ | %119
 D,/A,/F,/A,/D/A,/ | F,/A,/D,/A,/F,/A,/ | B, z z | z B,A, | ^G,/B,/G,/B,/E/B,/ | %124
 ^G,/B,/E,/B,/G,/B,/ | C z z | z F,E, | ^D,/F,/D,/F,/B,/F,/ | ^D,/F,/B,,/F,/D,/F,/ | %129
 G,/B,/G,/B,/E/B,/ | G,/B,/E,/B,/G,/B,/ | C/A,/F,/A,/D,/F,/ | B,/G,/E,/G,/C,/E,/ | %133
 A,/F,/^D,/F,/B,,/D,/ | G,/F,/E,/F,/G,/A,/ | B,/F,/^G,/^A,/B,/^C/ | D/^C/B,/C/D/E/ | F/E/ D2- | %138
 D/G,/A,<^C- | C/F,/G,<B,- | B,/E,/F,/^A,F,/ | B,B,, z | z D,B,, | E,E,, z | z ^G,E,/D/ | %145
 C/E/A,/C/E/C/ | A,/C/E,/A,/C/G,/ | F,/A,/D,/F,/A,/F,/ | D,/F,/A,,/D,/F,/C,/ | %149
 B,,/D,/G,,/B,,/D,/B,,/ | G,,/B,,/D,,/G,,/B,,/=F,,/ | E,,/G,,/C,,/D,,/E,,/C,,/ | D,,D,D, | D,3- | %154
 D,D,D, | E,/4D,/4E,/4D,/4E,/4D,/4E,/4D,/4E,/4D,/4^C,/4D,/4 | E,[D,,G,,_B,,][D,,G,,B,,] | D,, z z | %158
 D, z/ D,,/4E,,/4F,,/4G,,/4A,,/4B,,/4 | C,/4A,,/4B,,/4C,/4D,/4E,/4F,/4G,/4A,/4F,/4G,/4A,/4 | %160
 z D,C, | B,,B, z | z z G, | C, z A,, | B,, z G,, | A,, z D, | G,A,B, | z C,D, | !fermata!G,,3 |] %169

